assets/Man mage/Default/Flat/man_mage_flat_default.svg

<svg width="32" height="32" viewBox="0 0 32 32" fill="none" xmlns="http://www.w3.org/2000/svg">
<path d="M10.2 10.11L10.02 10.46H21.92L21.75 10.13C21.5558 9.75039 21.3274 9.25479 21.0695 8.6954C20.5539 7.57692 19.9208 6.20338 19.209 4.99212L21.449 5.00264C22.0907 5.00264 22.377 4.17264 21.8636 3.78264C20 2.50003 18.1719 2 15.97 2C13.9802 2 12.1312 5.98955 10.9117 8.62092C10.6419 9.20305 10.4029 9.71871 10.2 10.11Z" fill="#0074BA"/>
<path d="M9.7901 10.15L9.6001 10.53H22.3401L22.1601 10.17C21.8401 9.55 21.4401 8.99 20.9701 8.5H10.9701C10.5101 8.99 10.1101 9.54 9.7901 10.15Z" fill="#533566"/>
<path d="M20.4435 18.4979L23.5522 18.5C26 18.5 27.99 16.4843 28 14.005C28 11.5258 26.01 9.51008 23.5622 9.51008L8.43781 9.5C5.99005 9.5 4 11.5157 4 13.995C4 16.4742 5.99005 18.4899 8.42786 18.4899L11.56 18.492L12 20.5L9.82852 21.9501C9.44781 22.2201 9.08714 22.5101 8.74651 22.8301C7.44408 24.0501 6.4322 25.6001 5.87116 27.3801L5.8411 27.4601C5.58062 28.2801 5.38024 29.15 5.25 30H13L15.99 29L19.5 30H26.75C26.6198 29.14 26.4294 28.2601 26.1689 27.4201C25.5979 25.6101 24.576 24.0301 23.2435 22.8001C22.9129 22.4901 22.5522 22.2101 22.1915 21.9401L20 20.5L20.4435 18.4979Z" fill="#00A6ED"/>
<path d="M22.9351 18H9.06489C6.81433 18 5 16.4364 5 14.5C5 12.5636 6.82425 11 9.06489 11L22.9351 11.0104C25.1857 11.0104 27 12.574 27 14.5104C27 16.4364 25.1758 18 22.9351 18Z" fill="#0074BA"/>
<path d="M12.5 14.95C12.5 15.7784 11.8284 16.45 11 16.45C10.1716 16.45 9.5 15.7784 9.5 14.95C9.5 14.1215 10.1716 13.45 11 13.45C11.8284 13.45 12.5 14.1215 12.5 14.95Z" fill="#FDBB11"/>
<path d="M22.5 14.95C22.5 15.7784 21.8284 16.45 21 16.45C20.1716 16.45 19.5 15.7784 19.5 14.95C19.5 14.1215 20.1716 13.45 21 13.45C21.8284 13.45 22.5 14.1215 22.5 14.95Z" fill="#FDBB11"/>
<path d="M20.989 13.49C20.989 13.48 20.989 13.48 20.989 13.49L20.9987 13.38C21.0376 12.3 20.201 11.35 19.1406 11.35H12.8657C11.7664 11.35 10.9103 12.32 11.0075 13.44L11.2994 18.05C11.5523 20 13.1673 21.45 15.0838 21.45H16.008H16.9225C18.839 21.45 20.4539 19.99 20.7068 18.05L20.989 13.49Z" fill="#FFC83D"/>
<path d="M11.0122 13.1208C11.0105 13.1058 10.9878 13.0999 10.986 13.1149C10.8249 14.4652 9.37322 27.3101 12.1256 30H19.8427C22.6105 27.323 21.1663 14.409 21.0127 13.1061C21.011 13.0912 20.989 13.0971 20.9871 13.1119C20.8851 13.9079 20.1007 18.68 15.9553 18.68C11.8251 18.68 11.1059 13.9427 11.0122 13.1208Z" fill="#E6E6E6"/>
<path d="M16 18.1205C15.4461 18.1205 14.9333 17.9905 14.4922 17.7705C14.3486 17.6905 14.1845 17.8605 14.2768 18.0005C14.6461 18.5505 15.2718 18.9105 16 18.9105C16.718 18.9105 17.3539 18.5505 17.7232 18.0005C17.8155 17.8605 17.6514 17.7005 17.5078 17.7705C17.0667 17.9905 16.5539 18.1205 16 18.1205Z" fill="#990839"/>
<path d="M15.6642 16.8285C15.8755 16.7228 16.1243 16.7228 16.3356 16.8285L19.3356 18.3285C19.7064 18.5139 19.8567 18.9649 19.6713 19.3357C19.4859 19.7065 19.035 19.8568 18.6642 19.6714L15.9999 18.3393L13.3356 19.6714C12.9648 19.8568 12.5139 19.7065 12.3284 19.3357C12.143 18.9649 12.2933 18.5139 12.6642 18.3285L15.6642 16.8285Z" fill="#D3D3D3"/>
<path d="M12.1229 13.2217C12.2903 13.4407 12.6032 13.4828 12.8225 13.3161L12.821 13.3173L12.8325 13.3092C12.8449 13.3008 12.8664 13.2867 12.8962 13.2692C12.956 13.2338 13.048 13.1851 13.1666 13.1388C13.4043 13.0462 13.7405 12.9664 14.1405 13.0144C14.4146 13.0473 14.6636 12.8517 14.6965 12.5776C14.7294 12.3034 14.5338 12.0545 14.2596 12.0216C13.6595 11.9495 13.1558 12.0698 12.8034 12.2071C12.6271 12.2759 12.4866 12.3497 12.3877 12.4081C12.3381 12.4374 12.2986 12.463 12.2699 12.4825C12.2555 12.4923 12.2438 12.5006 12.2349 12.5071L12.2235 12.5154L12.2194 12.5185L12.2177 12.5197L12.2163 12.5208C11.997 12.6886 11.9551 13.0024 12.1229 13.2217Z" fill="#9B9B9B"/>
<path d="M18.9138 12.1211C18.5891 12.0263 18.1789 11.9653 17.7105 12.0215C17.4363 12.0544 17.2407 12.3034 17.2736 12.5776C17.3065 12.8517 17.5555 13.0473 17.8296 13.0144C18.1256 12.9789 18.3864 13.0133 18.5984 13.0711L19.2379 13.3708C19.4692 13.4791 19.745 13.3957 19.8775 13.1774C20.01 12.9591 19.9567 12.676 19.7538 12.5208L19.5114 12.3676C19.3695 12.2897 19.1667 12.195 18.9138 12.1211Z" fill="#9B9B9B"/>
<path d="M12.1899 14.8C12.3399 14.19 12.8999 13.73 13.5599 13.73C14.2499 13.73 14.8199 14.22 14.9499 14.87C14.9799 15.01 14.8699 15.14 14.7199 15.14H12.4599C12.2799 15.14 12.1499 14.97 12.1899 14.8Z" fill="white"/>
<path d="M19.7801 14.8C19.6301 14.19 19.0701 13.73 18.4101 13.73C17.7201 13.73 17.1501 14.22 17.0201 14.87C16.9901 15.01 17.1001 15.14 17.2501 15.14H19.5101C19.6901 15.14 19.8201 14.97 19.7801 14.8Z" fill="white"/>
<path d="M12.8701 14.9C12.8701 14.4 13.2701 14 13.7701 14C14.2701 14 14.6801 14.4 14.6701 14.9C14.6701 14.98 14.6601 15.06 14.6401 15.14H12.9001C12.8801 15.06 12.8701 14.98 12.8701 14.9Z" fill="#7D4533"/>
<path d="M19.1 14.9C19.1 14.4 18.7 14 18.2 14C17.7 14 17.29 14.4 17.3 14.9C17.3 14.98 17.31 15.06 17.33 15.14H19.07C19.09 15.06 19.1 14.98 19.1 14.9Z" fill="#7D4533"/>
<path d="M13.77 14.38C14.06 14.38 14.29 14.61 14.29 14.9C14.29 14.99 14.27 15.07 14.22 15.14H13.31C13.27 15.07 13.25 14.99 13.25 14.9C13.25 14.61 13.48 14.38 13.77 14.38Z" fill="black"/>
<path d="M18.1999 14.38C17.9099 14.38 17.6799 14.61 17.6799 14.9C17.6799 14.99 17.6999 15.07 17.7499 15.14H18.6599C18.6999 15.07 18.7199 14.99 18.7199 14.9C18.7199 14.61 18.4899 14.38 18.1999 14.38Z" fill="black"/>
<path d="M13.62 14.54C13.62 14.6284 13.5484 14.7 13.46 14.7C13.3717 14.7 13.3 14.6284 13.3 14.54C13.3 14.4516 13.3717 14.38 13.46 14.38C13.5484 14.38 13.62 14.4516 13.62 14.54Z" fill="white"/>
<path d="M18.08 14.54C18.08 14.6284 18.0084 14.7 17.92 14.7C17.8316 14.7 17.76 14.6284 17.76 14.54C17.76 14.4516 17.8316 14.38 17.92 14.38C18.0084 14.38 18.08 14.4516 18.08 14.54Z" fill="white"/>
<path d="M15.67 14.82L15.15 16.51C15.04 16.86 15.3 17.21 15.67 17.21H16.45C16.81 17.21 17.07 16.86 16.97 16.51L16.45 14.82C16.32 14.45 15.79 14.45 15.67 14.82Z" fill="#ED9200"/>
<path d="M27 23C27.5545 23 28 23.4054 28 23.9099V26H26V23.9099C26 23.4054 26.4455 23 27 23Z" fill="#F59F00"/>
<path d="M27.25 5.30001C27.05 5.19001 26.8 5.34001 26.8 5.57001V7.19001C26.8 7.63001 26.44 8.00001 26 7.99001C25.58 7.98001 25.23 7.64001 25.23 7.21001V5.57001C25.23 5.34001 24.98 5.19001 24.78 5.30001C23.97 5.74001 23.42 6.59001 23.41 7.57001C23.4 8.58001 23.99 9.47001 24.84 9.91001C24.94 9.96001 25 10.06 25 10.17V26.08C25 26.65 25.47 27.12 26.04 27.12C26.61 27.12 27 26.65 27 26.08V10.17C27 10.06 27.14 9.94001 27.24 9.89001C28.06 9.45001 28.62 8.59001 28.62 7.59001C28.62 6.60001 28.07 5.74001 27.25 5.30001Z" fill="#F3AD61"/>
<path d="M23.5005 25.2754C23.5095 24.8515 23.8334 24.5 24.2024 24.5H27.2081C27.649 24.5 28 24.9032 28 25.4098V29.0902C28 29.5968 27.649 30 27.2081 30H24.2024C23.8334 30 23.5095 29.6692 23.5005 29.2453C23.4915 28.9558 23.6174 28.7077 23.8064 28.563C23.6264 28.4286 23.5005 28.1805 23.5005 27.9117C23.5005 27.6429 23.6264 27.4051 23.8064 27.2603C23.6264 27.1259 23.5005 26.8778 23.5005 26.609C23.5005 26.3402 23.6264 26.1024 23.8064 25.9577C23.6174 25.813 23.4915 25.5545 23.5005 25.2754Z" fill="#FFC83D"/>
<path d="M26 8.96997C27.5188 8.96997 28.75 7.73875 28.75 6.21997C28.75 4.70119 27.5188 3.46997 26 3.46997C24.4812 3.46997 23.25 4.70119 23.25 6.21997C23.25 7.73875 24.4812 8.96997 26 8.96997Z" fill="#00D1ED"/>
<path d="M27.69 4.64002C28.03 5.10002 28 5.70002 27.62 5.98002C27.24 6.26002 26.66 6.11002 26.32 5.65002C25.97 5.19002 26 4.59002 26.38 4.31002C26.76 4.03002 27.35 4.18002 27.69 4.64002Z" fill="#B4F6FC"/>
<g opacity="0.5">
<path d="M17.9402 15.6185C17.829 15.5024 17.6447 15.4985 17.5287 15.6097C17.4126 15.721 17.4087 15.9052 17.5199 16.0213L17.9087 16.3123C18.1493 16.4506 18.5016 16.591 18.9401 16.591C19.1008 16.591 19.2312 16.4607 19.2312 16.2999C19.2312 16.1391 19.1008 16.0088 18.9401 16.0088C18.6285 16.0088 18.3758 15.9092 18.1989 15.8075C18.1127 15.7528 17.9402 15.6384 17.9402 15.6185Z" fill="#D67D00"/>
<path d="M14.5814 15.6097C14.4654 15.4986 14.2812 15.5024 14.17 15.6183L14.16 15.6279C14.1502 15.6371 14.134 15.6517 14.1118 15.6699C14.0672 15.7064 13.9994 15.7568 13.9112 15.8075C13.7343 15.9092 13.4816 16.0088 13.17 16.0088C13.0092 16.0088 12.8789 16.1391 12.8789 16.2999C12.8789 16.4607 13.0092 16.591 13.17 16.591C13.6084 16.591 13.9607 16.4506 14.2013 16.3123C14.3218 16.243 14.4159 16.1734 14.4811 16.12L14.5885 16.023L14.5894 16.0221L14.5902 16.0213C14.7014 15.9052 14.6975 15.721 14.5814 15.6097Z" fill="#D67D00"/>
</g>
</svg>

<svg xmlns="http://www.w3.org/2000/svg" width="32" height="32" fill="none"><path fill="#0074BA" d="m10.2 10.11-.18.35h11.9l-.17-.33c-.194-.38-.423-.875-.68-1.435-.516-1.118-1.15-2.492-1.861-3.703l2.24.01c.642 0 .928-.83.415-1.22C20 2.5 18.172 2 15.97 2c-1.99 0-3.839 3.99-5.058 6.62-.27.583-.51 1.099-.712 1.49Z"/><path fill="#533566" d="m9.79 10.15-.19.38h12.74l-.18-.36a7.13 7.13 0 0 0-1.19-1.67h-10c-.46.49-.86 1.04-1.18 1.65Z"/><path fill="#00A6ED" d="m20.444 18.498 3.108.002C26 18.5 27.99 16.484 28 14.005c0-2.48-1.99-4.495-4.438-4.495L8.438 9.5C5.99 9.5 4 11.516 4 13.995c0 2.48 1.99 4.495 4.428 4.495l3.132.002L12 20.5l-2.171 1.45c-.381.27-.742.56-1.082.88a10.602 10.602 0 0 0-2.876 4.55l-.03.08c-.26.82-.46 1.69-.591 2.54H13l2.99-1 3.51 1h7.25c-.13-.86-.32-1.74-.581-2.58a10.63 10.63 0 0 0-2.925-4.62c-.331-.31-.692-.59-1.052-.86L20 20.5l.444-2.002Z"/><path fill="#0074BA" d="M22.935 18H9.065C6.815 18 5 16.436 5 14.5S6.824 11 9.065 11l13.87.01c2.25 0 4.065 1.564 4.065 3.5 0 1.926-1.824 3.49-4.065 3.49Z"/><path fill="#FDBB11" d="M12.5 14.95a1.5 1.5 0 1 1-3 0 1.5 1.5 0 0 1 3 0ZM22.5 14.95a1.5 1.5 0 1 1-3 0 1.5 1.5 0 0 1 3 0Z"/><path fill="#FFC83D" d="M20.989 13.49c0-.01 0-.01 0 0l.01-.11c.039-1.08-.798-2.03-1.858-2.03h-6.275c-1.1 0-1.956.97-1.858 2.09l.291 4.61c.253 1.95 1.868 3.4 3.785 3.4h1.839c1.916 0 3.53-1.46 3.784-3.4l.282-4.56Z"/><path fill="#E6E6E6" d="M11.012 13.12c-.002-.014-.024-.02-.026-.005-.161 1.35-1.613 14.195 1.14 16.885h7.717c2.767-2.677 1.323-15.591 1.17-16.894-.002-.015-.024-.009-.026.006-.102.796-.886 5.568-5.032 5.568-4.13 0-4.85-4.737-4.943-5.56Z"/><path fill="#990839" d="M16 18.12c-.554 0-1.067-.13-1.508-.35-.143-.08-.308.09-.215.23.37.55.995.91 1.723.91a2.07 2.07 0 0 0 1.723-.91c.093-.14-.072-.3-.215-.23-.441.22-.954.35-1.508.35Z"/><path fill="#D3D3D3" d="M15.664 16.828a.75.75 0 0 1 .672 0l3 1.5a.75.75 0 0 1-.672 1.343L16 18.34l-2.664 1.332a.75.75 0 0 1-.672-1.343l3-1.5Z"/><path fill="#9B9B9B" d="M12.123 13.222a.5.5 0 0 0 .7.094l-.002.001.011-.008.064-.04a2.015 2.015 0 0 1 1.244-.255.5.5 0 0 0 .12-.992 3.013 3.013 0 0 0-1.99.46l-.035.025-.011.008-.005.003-.001.002h-.002a.5.5 0 0 0-.093.702ZM18.914 12.121a3.005 3.005 0 0 0-1.204-.1.5.5 0 0 0 .12.993c.296-.035.556 0 .768.057l.64.3a.5.5 0 0 0 .516-.85l-.243-.153a2.994 2.994 0 0 0-.597-.247Z"/><path fill="#fff" d="M12.19 14.8c.15-.61.71-1.07 1.37-1.07.69 0 1.26.49 1.39 1.14.03.14-.08.27-.23.27h-2.26c-.18 0-.31-.17-.27-.34ZM19.78 14.8c-.15-.61-.71-1.07-1.37-1.07-.69 0-1.26.49-1.39 1.14-.03.14.08.27.23.27h2.26c.18 0 .31-.17.27-.34Z"/><path fill="#7D4533" d="M12.87 14.9c0-.5.4-.9.9-.9s.91.4.9.9c0 .08-.01.16-.03.24H12.9a.986.986 0 0 1-.03-.24ZM19.1 14.9c0-.5-.4-.9-.9-.9s-.91.4-.9.9c0 .08.01.16.03.24h1.74c.02-.08.03-.16.03-.24Z"/><path fill="#000" d="M13.77 14.38c.29 0 .52.23.52.52 0 .09-.02.17-.07.24h-.91a.516.516 0 0 1 .46-.76ZM18.2 14.38c-.29 0-.52.23-.52.52 0 .09.02.17.07.24h.91a.516.516 0 0 0-.46-.76Z"/><path fill="#fff" d="M13.62 14.54a.16.16 0 1 1-.32 0 .16.16 0 0 1 .32 0ZM18.08 14.54a.16.16 0 1 1-.32 0 .16.16 0 0 1 .32 0Z"/><path fill="#ED9200" d="m15.67 14.82-.52 1.69c-.11.35.15.7.52.7h.78c.36 0 .62-.35.52-.7l-.52-1.69c-.13-.37-.66-.37-.78 0Z"/><path fill="#F59F00" d="M27 23c.555 0 1 .405 1 .91V26h-2v-2.09c0-.505.445-.91 1-.91Z"/><path fill="#F3AD61" d="M27.25 5.3c-.2-.11-.45.04-.45.27v1.62c0 .44-.36.81-.8.8a.786.786 0 0 1-.77-.78V5.57c0-.23-.25-.38-.45-.27-.81.44-1.36 1.29-1.37 2.27-.01 1.01.58 1.9 1.43 2.34.1.05.16.15.16.26v15.91c0 .57.47 1.04 1.04 1.04.57 0 .96-.47.96-1.04V10.17c0-.11.14-.23.24-.28a2.605 2.605 0 0 0 .01-4.59Z"/><path fill="#FFC83D" d="M23.5 25.275c.01-.423.333-.775.702-.775h3.006c.441 0 .792.403.792.91v3.68c0 .507-.351.91-.792.91h-3.006c-.369 0-.693-.33-.702-.755a.82.82 0 0 1 .306-.682.824.824 0 0 1-.306-.651.84.84 0 0 1 .306-.652.824.824 0 0 1-.306-.651.84.84 0 0 1 .306-.651.834.834 0 0 1-.306-.683Z"/><path fill="#00D1ED" d="M26 8.97a2.75 2.75 0 1 0 0-5.5 2.75 2.75 0 0 0 0 5.5Z"/><path fill="#B4F6FC" d="M27.69 4.64c.34.46.31 1.06-.07 1.34s-.96.13-1.3-.33c-.35-.46-.32-1.06.06-1.34s.97-.13 1.31.33Z"/><g fill="#D67D00" opacity=".5"><path d="M17.94 15.618a.291.291 0 1 0-.42.403l.389.291c.24.139.593.279 1.031.279a.291.291 0 0 0 0-.582c-.312 0-.564-.1-.741-.202-.086-.054-.259-.169-.259-.189ZM14.581 15.61a.291.291 0 0 0-.411.008l-.01.01a1.497 1.497 0 0 1-.249.18c-.177.101-.43.2-.741.2a.291.291 0 1 0 0 .583 2.066 2.066 0 0 0 1.311-.471l.107-.097h.001l.001-.002a.291.291 0 0 0-.009-.411Z"/></g></svg>
